X:28
T:Bride has a Bonnie Thing, The
M:6/8
L:1/8
B:Thompson's Compleat Collection of 200 Favourite Country Dances, vol. 1 (London, 1757)
Z:Transcribed and edited by Fynnian Titford-Mock, 2007
Z:abc's:AK/Fiddler's Companion
K:Amix
eAA ecc|fBB Baf|eAA ecc|eAA ecc|fdd ecc|
fBB Baf|eAA ecc|eAA Aaf::e3 f/g/af|e2A ABc|
e3 (f/g/a)f|g2B Bcd|e3 (f/g/a)f|(ec)e (ae)g|(fd)f (ec)e|fBB Bcd:|

